groups/alkoxy/methoxy.svg

<svg height="256" viewBox="0 0 256 256" width="256" xmlns="http://www.w3.org/2000/svg"><path d="m0 0h256v256h-256z" fill="#fff"/><path d="m215.5 136.6-57.1-33.1" fill="none" stroke="#000" stroke-width="2"/><path d="m128.9 103.5-42.5 24.5" fill="none" stroke="#000" stroke-width="2"/><path d="m236.35 100.671c-2.697-1.561-4.777 2.035-2.08 3.595 2.696 1.56.616 5.156-2.081 3.595-2.696-1.56-4.777 2.036-2.08 3.596s.617 5.156-2.08 3.595c-2.697-1.56-4.777 2.036-2.08 3.596 2.696 1.56.616 5.156-2.08 3.595-2.697-1.56-4.777 2.036-2.081 3.596 2.697 1.56.617 5.155-2.08 3.595-2.696-1.56-4.777 2.036-2.08 3.596s.617 5.155-2.08 3.595-4.777 2.035-2.08 3.596c2.696 1.56.616 5.155-2.081 3.595-2.696-1.56-4.776 2.035-2.08 3.596 2.697 1.56.617 5.155-2.08 3.595s-4.777 2.035-2.08 3.596c2.697 1.56.616 5.155-2.08 3.595-2.697-1.56-4.777 2.035-2.08 3.595 2.696 1.561.616 5.156-2.081 3.596-2.696-1.56-4.776 2.035-2.08 3.595 2.697 1.561.617 5.156-2.08 3.596" fill="none" stroke="#7f7f7f" stroke-width="2"/><g font-family="sans-serif"><text font-size="40" x="131.6" y="115">O</text><text font-size="40" x="19.3" y="156.5">H</text><text font-size="26" x="46.9" y="172.5">3</text><text font-size="40" x="59.7" y="156.5">C</text></g></svg>

<?xml version='1.0' encoding='iso-8859-1'?>
<svg version='1.1' baseProfile='full'
              xmlns='http://www.w3.org/2000/svg'
                      xmlns:rdkit='http://www.rdkit.org/xml'
                      xmlns:xlink='http://www.w3.org/1999/xlink'
                  xml:space='preserve'
width='256px' height='256px' viewBox='0 0 256 256'>
<!-- END OF HEADER -->
<rect style='opacity:1.0;fill:#FFFFFF;stroke:none' width='256.0' height='256.0' x='0.0' y='0.0'> </rect>
<path class='bond-0 atom-0 atom-1' d='M 215.5,136.6 L 158.4,103.5' style='fill:none;fill-rule:evenodd;stroke:#000000;stroke-width:2.0px;stroke-linecap:butt;stroke-linejoin:miter;stroke-opacity:1' />
<path class='bond-1 atom-1 atom-2' d='M 128.9,103.5 L 86.4,128.0' style='fill:none;fill-rule:evenodd;stroke:#000000;stroke-width:2.0px;stroke-linecap:butt;stroke-linejoin:miter;stroke-opacity:1' />
<path class='atom-1' d='M236.35,100.671 C233.653,99.1104 231.573,102.706 234.27,104.266 C236.966,105.826 234.886,109.422 232.189,107.861 C229.493,106.301 227.412,109.897 230.109,111.457 C232.806,113.017 230.726,116.613 228.029,115.052 C225.332,113.492 223.252,117.088 225.949,118.648 C228.645,120.208 226.565,123.804 223.869,122.243 C221.172,120.683 219.092,124.279 221.788,125.839 C224.485,127.399 222.405,130.994 219.708,129.434 C217.012,127.874 214.931,131.47 217.628,133.03 C220.325,134.59 218.245,138.185 215.548,136.625 C212.851,135.065 210.771,138.66 213.468,140.221 C216.164,141.781 214.084,145.376 211.387,143.816 C208.691,142.256 206.611,145.851 209.307,147.412 C212.004,148.972 209.924,152.567 207.227,151.007 C204.53,149.447 202.45,153.042 205.147,154.603 C207.844,156.163 205.763,159.758 203.067,158.198 C200.37,156.638 198.29,160.233 200.987,161.793 C203.683,163.354 201.603,166.949 198.906,165.389 C196.21,163.829 194.13,167.424 196.826,168.984 C199.523,170.545 197.443,174.14 194.746,172.58' style='fill:none;stroke:#7F7F7F;stroke-width:2.0px;stroke-linecap:butt;stroke-linejoin:miter;stroke-opacity:1' />
<text x='131.6' y='115.0' class='atom-1' style='font-size:40px;font-style:normal;font-weight:normal;fill-opacity:1;stroke:none;font-family:sans-serif;text-anchor:start;fill:#000000' >O</text>
<text x='19.3' y='156.5' class='atom-2' style='font-size:40px;font-style:normal;font-weight:normal;fill-opacity:1;stroke:none;font-family:sans-serif;text-anchor:start;fill:#000000' >H</text>
<text x='46.9' y='172.5' class='atom-2' style='font-size:26px;font-style:normal;font-weight:normal;fill-opacity:1;stroke:none;font-family:sans-serif;text-anchor:start;fill:#000000' >3</text>
<text x='59.7' y='156.5' class='atom-2' style='font-size:40px;font-style:normal;font-weight:normal;fill-opacity:1;stroke:none;font-family:sans-serif;text-anchor:start;fill:#000000' >C</text>
</svg>
